priv/static/svgs/icons_new/generic-bet.svg

<svg width="32" height="32" viewBox="0 0 32 32" fill="none" xmlns="http://www.w3.org/2000/svg">
<path d="M10.001 10.6184H15.7038M10.001 15.2026H22.167M10.001 19.7867H22.167M23.0214 5.32754C19.5284 5.03014 13.8548 4.78493 9.00114 5.29544C8.00967 5.39972 7.23274 6.1763 7.11293 7.17071C6.54843 11.8561 6.02493 19.5916 7.23339 27.5227C7.27819 27.8168 7.62656 27.9439 7.85133 27.7503L9.53788 26.2978C9.80847 26.0647 10.2038 26.0518 10.489 26.2667L12.5863 27.8472C12.8566 28.0509 13.2284 28.0509 13.4987 27.8472L15.6277 26.2427C15.8981 26.039 16.2698 26.039 16.5402 26.2427L18.6692 27.8472C18.9396 28.0509 19.3113 28.0509 19.5817 27.8472L21.679 26.2667C21.9641 26.0518 22.3595 26.0647 22.6301 26.2978L24.309 27.7438C24.5354 27.9388 24.886 27.8085 24.9266 27.5117C25.8783 20.5489 25.4573 12.4286 25.0067 7.31948C24.9128 6.25525 24.0809 5.41775 23.0214 5.32754Z" stroke="black" stroke-linecap="round"/>
</svg>

<svg width="32" height="32" viewBox="0 0 32 32" fill="none" xmlns="http://www.w3.org/2000/svg">
  <symbol id="item" viewBox="0 0 32 32" stroke-width="1" fill="none">
    <path d="M10.001 10.618h5.703M10 15.203h12.166m-12.166 4.584h12.166m.854-14.46c-3.493-.297-9.166-.542-14.02-.032a2.128 2.128 0 0 0-1.888 1.876c-.565 4.685-1.088 12.42.12 20.352a.376.376 0 0 0 .618.227l1.687-1.452a.757.757 0 0 1 .951-.031l2.097 1.58c.27.204.642.204.913 0l2.129-1.604a.758.758 0 0 1 .912 0l2.13 1.604c.27.204.641.204.912 0l2.097-1.58a.757.757 0 0 1 .951.03l1.679 1.447a.375.375 0 0 0 .618-.232c.951-6.963.53-15.083.08-20.193a2.18 2.18 0 0 0-1.986-1.991Z" stroke="currentColor" stroke-linecap="round"/>
  </symbol>
</svg>
